X:098 
T:John Doherty's Reel (1) 
B:CRE3.149 (Ril SheÃÂÃÂÃÂÃÂ¡in Ui Dhochartaigh)
F:file ID: cre.3/098john_d1
L:1/8
R:reel
Q:180
M:C
K:D
E|FEDF ABAG|FAAF GFED|FGAF D2Dg|fdec dABG|
FEDF ABAG|FAAF GFED|CEAF D2dg|fdec defg||
a2fa dafa|fgec Aceg|a2fa dafa|gbag fddf|
a2fa dafa|fgec Aceg|fa (3gfe fdec|dABG FDDE||

%%%

